packages/kaspersky-hexa-ui-icons/src/iconsSVGs/32/Subnet.svg

<svg xmlns="http://www.w3.org/2000/svg" width="32" height="32" fill="none" viewBox="0 0 32 32"><path fill="#000" fill-rule="evenodd" d="M12 6c-1.6569 0-3 1.3431-3 3v1c0 1.6569 1.3431 3 3 3h3v2h-5c-1.6569 0-3 1.3431-3 3v1H4c-1.6568 0-3 1.3431-3 3v1c0 1.6569 1.3432 3 3 3h8c1.6569 0 3-1.3431 3-3v-1c0-1.6569-1.3431-3-3-3H9v-1c0-.5523.4477-1 1-1h12c.5523 0 1 .4477 1 1v1h-3c-1.6569 0-3 1.3431-3 3v1c0 1.6569 1.3431 3 3 3h8c1.6569 0 3-1.3431 3-3v-1c0-1.6569-1.3431-3-3-3h-3v-1c0-1.6569-1.3431-3-3-3h-5v-2h3c1.6569 0 3-1.3431 3-3V9c0-1.6569-1.3431-3-3-3zm8 15c-.5523 0-1 .4477-1 1v1c0 .5523.4477 1 1 1h8c.5523 0 1-.4477 1-1v-1c0-.5523-.4477-1-1-1zM4 21c-.5523 0-1 .4477-1 1v1c0 .5523.4477 1 1 1h8c.5523 0 1-.4477 1-1v-1c0-.5523-.4477-1-1-1zm16-10c.5523 0 1-.4477 1-1V9c0-.5523-.4477-1-1-1h-8c-.5523 0-1 .4477-1 1v1c0 .5523.4477 1 1 1z"/></svg>

<svg width="32" height="32" viewBox="0 0 32 32" fill="none" xmlns="http://www.w3.org/2000/svg">
<path fill-rule="evenodd" clip-rule="evenodd" d="M12 6C10.3431 6 9 7.34315 9 9V10C9 11.6569 10.3431 13 12 13H15V15H10C8.34315 15 7 16.3431 7 18V19H4C2.34315 19 1 20.3431 1 22V23C1 24.6569 2.34315 26 4 26H12C13.6569 26 15 24.6569 15 23V22C15 20.3431 13.6569 19 12 19H9V18C9 17.4477 9.44772 17 10 17H22C22.5523 17 23 17.4477 23 18V19H20C18.3431 19 17 20.3431 17 22V23C17 24.6569 18.3431 26 20 26H28C29.6569 26 31 24.6569 31 23V22C31 20.3431 29.6569 19 28 19H25V18C25 16.3431 23.6569 15 22 15H17V13H20C21.6569 13 23 11.6569 23 10V9C23 7.34315 21.6569 6 20 6H12ZM20 21C19.4477 21 19 21.4477 19 22V23C19 23.5523 19.4477 24 20 24H28C28.5523 24 29 23.5523 29 23V22C29 21.4477 28.5523 21 28 21H20ZM4 21C3.44772 21 3 21.4477 3 22V23C3 23.5523 3.44772 24 4 24H12C12.5523 24 13 23.5523 13 23V22C13 21.4477 12.5523 21 12 21H4ZM20 11C20.5523 11 21 10.5523 21 10V9C21 8.44772 20.5523 8 20 8H12C11.4477 8 11 8.44772 11 9V10C11 10.5523 11.4477 11 12 11H20Z" fill="black"/>
</svg>
